X: 27323
T: Mist Covered Mountain, The
R: jig
M: 6/8
K: Adorian
E|EAA ABd|e2A AGE|G2G GAB|dBA GED|
EAA ABd|e2A AGE|EFG BdB|BAG A2:|
e|age a2b|age edB|AGE G2A|BAB G2e|
age a2b|age edB|AGE G2A|BAG A2e|
age a2b|age edB|AGE G2A|BAB GED|
EDE G2A|BAG ABd|EFG BDB|BAG A2||

